X: 436
T: Curly Locks
N:"Moderate" "collected by F.O'Neill"
N:Irish title: an gruag cuirneana.c
B:O'Neill's 436
Z:Transcribed by henrik.norbeck@mailbox.swipnet.se
M:C
L:1/8
K:G
G>E | D>EGA B>AGA | Bdef g3 e | dBAB G2 AB | {d}cBAG E2 GE |
D>EGA BAGA | Bdef g3 e | d>BAG A>cBA | G2 G2 G2 ||
GA | Bdef g3 a | bgfe d3 e | dBAG G2 AB | {d}cBAG E2 GE |
D>EGA BAGA | Bdef g3 e | d>BAG A>cBA | G2 G2 G2 ||


